dist/assets/img/mail-pop.svg

<svg width="44" height="39" fill="none" xmlns="http://www.w3.org/2000/svg"><ellipse cx="21.775" cy="19.5" rx="21.406" ry="19.5" fill="#fff"/><path d="M32 14c0-1.1-.9-2-2-2H14c-1.1 0-2 .9-2 2v12c0 1.1.9 2 2 2h16c1.1 0 2-.9 2-2V14zm-2 0l-8 5-8-5h16zm0 12H14V16l8 5 8-5v10z" fill="#BFBFBF"/></svg>

<svg width="44" height="39" viewBox="0 0 44 39" fill="none" xmlns="http://www.w3.org/2000/svg">
<ellipse cx="21.7747" cy="19.5" rx="21.406" ry="19.5" fill="white"/>
<path d="M32 14C32 12.9 31.1 12 30 12H14C12.9 12 12 12.9 12 14V26C12 27.1 12.9 28 14 28H30C31.1 28 32 27.1 32 26V14ZM30 14L22 19L14 14H30ZM30 26H14V16L22 21L30 16V26Z" fill="#BFBFBF"/>
</svg>
